X: 33156
T: Princess Royal, The
R: reel
M: 4/4
K: Adorian
ed|:c2 Bc A2 e=f|ed cB A2 (3efg|f2 d2 d2 ef|ed cB c2 BA|
B2 g2 B2 cB|AB AG E2 ed|c2 (3ABc BA GE|1 A2 AG A2 ed:|2 A2 AG A2-Ad|
|:ea ab a2-ab|ag ed e2-ed|(3efg (3fga ga ge|dc BA G2 (3GAB|
c2 Bc d2 ^cd|ef (3gfe a2 ag|f2 A2 f2 gf|e2 A2 d2 ed|
c2 Bc AB cd|e2 E2 E2 ed|c2 (3ABc BA GE|1 A2 AG A2-Ad:|2 A2 AG A2||

